Sources/FrostedUI/Resources/Icons.xcassets/sun20.imageset/sun-20.svg

<svg width="20" height="20" viewBox="0 0 20 20" fill="none" xmlns="http://www.w3.org/2000/svg" data-fui-icon="true">
  <g clip-path="url(#clip0_882_678)">
    <path
      d="M10 16C10.4142 16 10.75 16.3358 10.75 16.75V18.75C10.75 19.1642 10.4142 19.5 10 19.5C9.58579 19.5 9.25 19.1642 9.25 18.75V16.75C9.25 16.3358 9.58579 16 10 16ZM4.69629 14.2422C4.98918 13.9493 5.46492 13.9493 5.75781 14.2422C6.05071 14.5351 6.05071 15.0108 5.75781 15.3037L4.34277 16.7178C4.04985 17.0103 3.57501 17.0106 3.28223 16.7178C2.98945 16.425 2.98967 15.9501 3.28223 15.6572L4.69629 14.2422ZM14.2432 14.2422C14.5361 13.9497 15.011 13.9495 15.3037 14.2422L16.7178 15.6572C17.0104 15.9501 17.0106 16.425 16.7178 16.7178C16.425 17.0105 15.9501 17.0103 15.6572 16.7178L14.2432 15.3037C13.9503 15.0108 13.9503 14.5351 14.2432 14.2422ZM10 5.4668C12.5036 5.46693 14.534 7.49643 14.5342 10C14.534 12.5036 12.5036 14.534 10 14.5342C7.49647 14.534 5.46699 12.5035 5.4668 10C5.46698 7.49646 7.49646 5.46698 10 5.4668ZM10 6.9668C8.32489 6.96698 6.96698 8.32489 6.9668 10C6.96699 11.6751 8.3249 13.034 10 13.0342C11.6751 13.034 13.034 11.6751 13.0342 10C13.034 8.32486 11.6752 6.96693 10 6.9668ZM3.25 9.25C3.66421 9.25 4 9.58579 4 10C4 10.4142 3.66421 10.75 3.25 10.75H1.25C0.835786 10.75 0.5 10.4142 0.5 10C0.500001 9.58579 0.835787 9.25 1.25 9.25H3.25ZM18.75 9.25C19.1642 9.25 19.5 9.58579 19.5 10C19.5 10.4142 19.1642 10.75 18.75 10.75H16.75C16.3358 10.75 16 10.4142 16 10C16 9.58579 16.3358 9.25 16.75 9.25H18.75ZM15.6572 3.28223C15.9501 2.98966 16.425 2.9895 16.7178 3.28223C17.0106 3.57502 17.0104 4.04986 16.7178 4.34277L15.3037 5.75781C15.011 6.05053 14.5361 6.05027 14.2432 5.75781C13.9503 5.46492 13.9503 4.98918 14.2432 4.69629L15.6572 3.28223ZM3.28223 3.28223C3.57501 2.98945 4.04985 2.98967 4.34277 3.28223L5.75781 4.69629C6.05071 4.98918 6.05071 5.46492 5.75781 5.75781C5.46492 6.05071 4.98918 6.05071 4.69629 5.75781L3.28223 4.34277C2.98967 4.04985 2.98945 3.57501 3.28223 3.28223ZM10 0.5C10.4142 0.5 10.75 0.835787 10.75 1.25V3.25C10.75 3.66421 10.4142 4 10 4C9.58579 4 9.25 3.66421 9.25 3.25V1.25C9.25 0.835786 9.58579 0.5 10 0.5Z"
      fill="currentColor"
    />
  </g>
  <defs>
    <clipPath id="clip0_882_678"><path fill="currentColor" d="M0 0H20V20H0z" /></clipPath>
  </defs>
</svg>

<svg xmlns="http://www.w3.org/2000/svg" width="20" height="20" fill="none" data-fui-icon="true" viewBox="0 0 20 20"><g clip-path="url(#a)"><path fill="currentColor" d="M10 16a.75.75 0 0 1 .75.75v2a.75.75 0 0 1-1.5 0v-2A.75.75 0 0 1 10 16m-5.304-1.758a.751.751 0 0 1 1.062 1.062l-1.415 1.414a.75.75 0 0 1-1.06-1.06zm9.547 0a.75.75 0 0 1 1.06 0l1.415 1.415a.75.75 0 0 1-1.06 1.06l-1.415-1.413a.75.75 0 0 1 0-1.062M10 5.467a4.534 4.534 0 1 1 0 9.068 4.534 4.534 0 0 1 0-9.068m0 1.5a3.034 3.034 0 1 0 0 6.067 3.034 3.034 0 0 0 0-6.067M3.25 9.25a.75.75 0 0 1 0 1.5h-2a.75.75 0 0 1 0-1.5zm15.5 0a.75.75 0 0 1 0 1.5h-2a.75.75 0 0 1 0-1.5zm-3.093-5.968a.75.75 0 0 1 1.06 1.06l-1.413 1.416a.75.75 0 0 1-1.06-1.062zm-12.375 0a.75.75 0 0 1 1.06 0l1.416 1.414a.751.751 0 0 1-1.062 1.062L3.282 4.343a.75.75 0 0 1 0-1.06M10 .5a.75.75 0 0 1 .75.75v2a.75.75 0 0 1-1.5 0v-2A.75.75 0 0 1 10 .5"/></g><defs><clipPath id="a"><path fill="currentColor" d="M0 0h20v20H0z"/></clipPath></defs></svg>
